X:1
T:GB/7e/1 Bonny Blue Handkerchief 
%%VWML:GB-7e-1-0
F:http://www.vwml.org/record/GB/7e/1
C:Transcribed by Simon Furey and Lewis Jones
L:1/4
M:3/4
I:linebreak $
K:Ador
E | A G E | !fermata!c B A | d c B | A2 E | A G E | c B A | d e f | e2 d | !fermata!e e f |$ g !fermata!e f | d d f | e3 | c3 | d3 | d c A | A G E | d c B | A2 |]

